X:1
T:The Meeting Place
T:The Meeting Place
T:Philip Phillips, 1893
T:Horatius Bonar, 1857
T:Public Domain Courtesy of the Cyber Hymnal™
T:Public Domain Courtesy of the Cyber Hymnal™
C:Philip Phillips, 1893
Z:Public Domain
Z:Courtesy of the Cyber Hymnal™
%%score ( 1 2 ) ( 3 4 )
L:1/8
Q:1/4=90
M:3/4
K:Bb
V:1 treble 
V:2 treble 
V:3 bass 
V:4 bass 
V:1
 [B,D][CE] | [DF]3 [DF] [EG][DF] | [DF] [DB]3 [DB][DB] | [Fc]3 [F=B] [Fc][F^c] | [Fd]4 [B,D][CE] | %5
w: 1.~Where the|fad- ed flower shall|fresh- en— Fresh- en|ne- ver more to|fade; Where the|
w: 2.~Where no|sha- dow shall be-|wil- der, When life’s|vain pa- rade is|o’er, Where the|
w: 3.~Where the|hid- den wound is|heal- èd, Where the|blight- ed life re-|blooms, Where the|
w: 4.~Where a|blast- ed world shall|bright- en Un- der-|neath a blu- er|sphere, And a|
 [DF]3 [DF] [EG][DF] | [DF] [DB]3 [GB][GB] | [FA]3 C [FA][=EG] | F4 F[FA] | [Fc]3 [F=B] [Fc][F^c] | %10
w: shad- ed sky shall|bright- en— Bright- en|ne- ver more to|shade: Where the|sun blaze ne- ver|
w: sleep of sin is|bro- ken, And the|dream- er dreams no|more: Where the|bond is ne- ver|
w: smit- ten heart the|fresh- ness Of its|buoy- ant youth re-|sumes: Where the|love that here we|
w: soft- er, gent- ler|sun- shine Shed its|heal- ing splen- dor|here: Where earth’s|bar- ren vales shall|
 [Fd]2 [DB]2 [FB][FB] | [GB]3 [EG] [GB][EG] | [DF]4 F[FA] | [Fc]3 [F=B] [Fc][Fd] | %14
w: scorch- es; Where the|star beams cease to|chill; Where no|tem- pest stirs the|
w: se- vered; Part- ing,|clasp- ings, sob and|moan, Mid- night|wak- ing, twi- light|
w: lav- ish On the|with- ering leaves of|time Shall have|fade- less flowers to|
w: blos- som, Put- ting|on their robe of|green, And a|pur- er, fair- er|
 [Ge] [Ge]3 [Fe][Fe] | [Fd]3 [Fc] [FB][Fc] | [Fd]4 [Gd][Gd] | [Gd]3 [Fd] [=Ec][EB] | %18
w: ech- oes Of the|wood, or wave, or|hill; Where the|morn shall wake in|
w: weep- ing, Hea- vy|noon- tide— all are|done: Where the|child has found its|
w: fix on In an|ev- er spring- bright|clime: Where we|find the joy of|
w: E- den Be where|on- ly wastes have|been: Where a|king in king- ly|
 [Fc] [Fc]3 [^Fd][Fc] | [GB]3 [Gc] [GB][EG] | [DF]4 [B,D][CE] | [DF]3 [DF] [EG][DF] | %22
w: glad- ness, And the|noon the joy pro-|long, Where the|day- light dies in|
w: mo- ther, Where the|mo- ther finds the|child, Where dear|fam- i- lies are|
w: lov- ing, As we|ne- ver loved be-|fore— Lov- ing|on, un- chilled, un-|
w: glo- ry, Such as|earth has ne- ver|known, Shall a-|ssume the right- eous|
 [DF] [DB]3 [DB][DB] | [Fc]3 [F=B] [Fc][F^c] | [Fd]4 ||"^Refrain" [Fd][DB] | [DF]3 [DF] [DF][D_A] | %27
w: frag- rance, ’Mid the|burst of ho- ly|song:|||
w: ga- thered, That were|scat- tered on the|wild:|||
w: hin- dered, Lov- ing|once and ev- er-|more:|||
w: scep- ter, Claim and|wear the ho- ly|crown:|||
 !fermata![EG]4 [DB][Gc] | [Fd][DB] [Ec]2 [Fd]2 | [DB]4 |] %30
w: |||
w: |||
w: |||
w: |||
V:2
 x2 | x6 | x6 | x6 | x6 | x6 | x6 | x3 C x2 | F4 F x | x6 | x6 | x6 | x4 F x | x6 | x6 | x6 | x6 | %17
 x6 | x6 | x6 | x6 | x6 | x6 | x6 | x4 || x2 | x6 | x6 | x6 | x4 |] %30
V:3
 [B,,F,][B,,F,] | [B,,B,]3 [B,,B,] [B,,B,][B,,B,] | [B,,B,] [B,,F,]3 [B,,F,][B,,F,] | %3
w: |||
 [F,A,]3 [F,^G,] [F,A,][F,A,] | B,4 [B,,F,][B,,F,] | [B,,B,]3 [B,,B,] [B,,B,][B,,B,] | %6
w: |Bro- * *||
 [B,,B,] B,3 [G,D][G,D] | [C,C]3 [C,A,] [C,C][C,B,] | [F,A,]4 [F,C][F,C] | %9
w: * ther, * *|||
 [F,A,]3 [F,^G,] [F,A,][F,A,] | [B,,B,]2 [B,,B,]2 [D,B,][D,B,] | [E,B,]3 [E,B,] [E,B,][G,B,] | %12
w: |||
 B,4 [F,C][F,C] | [F,A,]3 [F,^G,] [F,A,][D,=B,] | [C,C] [C,C]3 [F,A,][F,A,] | %15
w: we * *|||
 B,3 [F,A,] [D,B,][F,A,] | B,4 [G,B,][G,B,] | [G,B,]3 B, [G,C]B, | [F,B,] [F,A,]3 [D,A,][D,D] | %19
w: shall * * *|meet * *|* and * rest||
 [G,D]3 [G,D] [E,E][E,E] | B,4 [B,,F,][B,,F,] | [B,,B,]3 [B,,B,] [B,,B,][B,,B,] | %22
w: |’Mid * *||
 [B,,B,] [B,,F,]3 G,G, | [F,A,]3 [F,^G,] [F,A,][F,A,] | [B,,B,]4 || [B,,B,][B,,B,] | %26
w: * * the ho-|||ly and|
 [B,,B,]3 [B,,B,] [B,,B,][B,,B,] | !fermata![F,A,]4 [D,B,][E,D] | [F,B,][F,B,] [F,A,]2 [F,A,]2 | %29
w: the blest. * *|||
 [B,,B,]4 |] %30
w: |
V:4
 x2 | x6 | x6 | x6 | B,4 x2 | x6 | x B,3 x2 | x6 | x6 | x6 | x6 | x6 | B,4 x2 | x6 | x6 | B,3 x3 | %16
 B,4 x2 | x3 B, B, x | x6 | x6 | B,4 x2 | x6 | x4 G,G, | x6 | x4 || x2 | x6 | x6 | x6 | x4 |] %30

